X: 3
T: The Dreary Plains Of Toil
R: strathspey
M: 4/4
L: 1/8
K: Ador
AG|E<A A>B c>A c<e|d>c B>A G>A B<G|E<A A>B c>A c<e|a>g e<g a>b c'b|
a>b a>g e>f g<e|d>c B>A G>A B<G|E<A A>B c>A c<e|d>B G<B A2 B<d||
e<A A>G E<A A>G|E<A G<B c>A c<e|d>B A>G E<G G>A|B>G B>c d>B c<d|
e<A A>G E<A A>G|E<A G<B c>A c<d|e<a ga/b/ a>g ec|d>B G<B A2 AG||

